icons/src/svg/clock_inactive.svg

<svg width="32" height="32" viewBox="0 0 32 32" fill="none" xmlns="http://www.w3.org/2000/svg">
<path d="M27.7921 23.5495C29.1896 21.3712 30 18.7802 30 16C30 8.26801 23.732 2 16 2C13.2198 2 10.6288 2.81041 8.45053 4.20789L9.9041 5.66146C11.6906 4.60579 13.7746 4 16 4C22.6274 4 28 9.37259 28 16C28 18.2254 27.3942 20.3094 26.3385 22.0959L27.7921 23.5495Z" fill="#0D0F13"/>
<path d="M5.66146 9.90474C4.60579 11.6912 4 13.7752 4 16.0006C4 22.628 9.37258 28.0006 16 28.0006C18.2254 28.0006 20.3094 27.3948 22.0959 26.3391L23.5495 27.7927C21.3712 29.1902 18.7802 30.0006 16 30.0006C8.26801 30.0006 2 23.7326 2 16.0006C2 13.2204 2.81041 10.6294 4.20789 8.45117L5.66146 9.90474Z" fill="#0D0F13"/>
<path d="M21.2426 17H23C23.5523 17 24 16.5523 24 16C24 15.4477 23.5523 15 23 15H19.2426L21.2426 17Z" fill="#0D0F13"/>
<path d="M17 12.7574V7C17 6.44772 16.5523 6 16 6C15.4477 6 15 6.44772 15 7V10.7574L17 12.7574Z" fill="#0D0F13"/>
<path fill-rule="evenodd" clip-rule="evenodd" d="M2.29289 2.29289C2.68342 1.90237 3.31658 1.90237 3.70711 2.29289L29.7071 28.2929C30.0976 28.6834 30.0976 29.3166 29.7071 29.7071C29.3166 30.0976 28.6834 30.0976 28.2929 29.7071L2.29289 3.70711C1.90237 3.31658 1.90237 2.68342 2.29289 2.29289Z" fill="#0D0F13"/>
</svg>

<?xml version="1.0" encoding="utf-8"?>
<!-- Generator: Adobe Illustrator 26.0.1, SVG Export Plug-In . SVG Version: 6.00 Build 0)  -->
<svg version="1.1" id="Layer_1" xmlns="http://www.w3.org/2000/svg" xmlns:xlink="http://www.w3.org/1999/xlink" x="0px" y="0px"
	 viewBox="0 0 32 32" style="enable-background:new 0 0 32 32;" xml:space="preserve">
<style type="text/css">
	.st0{fill:#0D0F13;}
</style>
<path class="st0" d="M27.8,23.5c1.4-2.2,2.2-4.8,2.2-7.5c0-7.7-6.3-14-14-14c-2.8,0-5.4,0.8-7.5,2.2l1.5,1.5C11.7,4.6,13.8,4,16,4
	c6.6,0,12,5.4,12,12c0,2.2-0.6,4.3-1.7,6.1L27.8,23.5z M5.7,9.9C4.6,11.7,4,13.8,4,16c0,6.6,5.4,12,12,12c2.2,0,4.3-0.6,6.1-1.7
	l1.5,1.5C21.4,29.2,18.8,30,16,30C8.3,30,2,23.7,2,16c0-2.8,0.8-5.4,2.2-7.5L5.7,9.9z M21.2,17H23c0.6,0,1-0.4,1-1c0-0.6-0.4-1-1-1
	h-3.8L21.2,17z M17,12.8V7c0-0.6-0.4-1-1-1c-0.6,0-1,0.4-1,1v3.8L17,12.8z M2.3,2.3c0.4-0.4,1-0.4,1.4,0l26,26c0.4,0.4,0.4,1,0,1.4
	c-0.4,0.4-1,0.4-1.4,0l-26-26C1.9,3.3,1.9,2.7,2.3,2.3z"/>
</svg>
